X:1
T:Jugend-Lieder
T:Lied der Desdemona
T:Jugend-Lieder
T:Mathilde Kralik
T:5. Lied der Desdemona
T:Jean-Jacques Rousseau German text by Johann Gottfried Herder 
T:Creative Commons copyright waiver (CC0 1.0 Universal)
T:Creative Commons copyright waiver (CC0 1.0 Universal)
T:Creative Commons copyright waiver (CC0 1.0 Universal)
T:Creative Commons copyright waiver (CC0 1.0 Universal)
T:Creative Commons copyright waiver (CC0 1.0 Universal)
T:Creative Commons copyright waiver (CC0 1.0 Universal)
C:Mathilde Kralik
Z:Jean-Jacques Rousseau
Z:Creative Commons copyright waiver (CC0 1.0 Universal)
%%score ( 1 2 ) { ( 3 5 ) | ( 4 6 ) }
L:1/8
Q:1/4=120
M:4/4
K:A
V:1 treble nm="Singstimme\nVoice"
V:2 treble 
V:3 treble nm="Piano"
V:5 treble 
V:4 bass 
V:6 bass 
V:1
"^Ruhig" z4 z c c c | c3 c d3 d | c2 B2 A2 z c | !^!c3 B A2 B2 | c2 d2 e2 f2 | !>!f4 B2 z2 | %6
w: An ei- nem|Baum, am Wei- den-|baum sass sie, ge-|drückt die Hand zum|Her- zen, schwer von|Lei- de,|
 z4 z2 B2 | a3 f ^d2 B2 | A2 B=c B3 A | A4 =G2 z2 | z8 | z8 | z4 B4 | ^c3 c c2 c2 | d2 d2 d2 d2 | %15
w: ge-|senkt das Haupt, auf|e- wig * fern der|Freu- de,|||so|wein- te sie, so|sang sie spät und|
 e8- | e2 z2 z4 | z2 A2 d4- | d2 =c2 B2 c2 | B4 z4 | z8 | z8 | z8 | z8 | !^!e4 d3 c | c4 B B B B | %26
w: früh,|_|so sang|_ sie spät und|früh:|||||singt al- le|Wei- de, singt mei- ne|
 B A A e e d d c | c4 B2 z2 | e2 A2 d3 c | B4 A2 z2 | e2 A2 d3 c | B4 A2 z2 | z8 | z4 z c c c | %34
w: süs- se, mei- ne lie- be, grü- ne|Wei- de,|lie- be, grü- ne|Wei- de,|lie- be, grü- ne|Wei- de!||Der hel- le|
 c3 c d3 d | c2 B2 A2 z c | c3 B A2 B2 | c2 d2 e2 f2 | f4 B2 z2 | z4 z2 [FB]2 | a3 f ^d2 B2 | %41
w: Strom, er füh- let|mit ihr Ach! Er|rau- schet sanft zu|ih- ren Kla- ge-|tön- en,|Der|Fels in ihm er-|
 A2 B=c B2 A2 | A4 =G2 z2 | z8 | z8 | z4 B4 | c3 c c2 c2 | d2 d2 d2 d2 | e8 | z4 e4 | (e2 A2 d4- | %51
w: weicht von * ih- ren|Thrä- nen,|||hallt|trau- rig den ge-|broch- nen Seuf- zer|nach,|hallt|trau- * *|
 d2 =c2 B2) c2 | B4 z4 | z8 | z8 | z8 | z8 | e4 d3 c | c4 B B B B | B A A e e d d c | c4 B2 z2 | %61
w: * * * rig|nach,:|||||singt al- le|Wei- de, singt mei- ne|süs- se, mei- ne lie- be, grü- ne|Wei- de,|
 e2 A2 d3 c | B4 A2 z2 | e2 A2 d3 c | B4 A2 z2 | z8 | z8 | z4 z!p! c c c | c2 z c d3 d | %69
w: lie- be, grü- ne|Wei- de,|lie- be, grü- ne|Wei- de.|||Du han- gend|Laub, ge- lieb- te|
 c2 B2 A2 z c | !^!c3 B A2 B2 | c2 d2 e2 f2 | !>!f4 B2 z2 | z4 z2!mf! B2 | a3 f ^d2 B2 | %75
w: Wei- de, du, Was|neigst du dich her-|ab zu mei- nem|Lei- de?|Mir|Kranz zu sein in|
 A2 B=c B2 A2 | A4 =G2 z2 | z8 | z8 | z4 !^!B4 | c3 c c2 c2 | d2 d2 d2 d2 | e8- | e4 z4 | z4 d4 | %85
w: mei- nem * Lei- chen-|klei- de!|||Hier|schwur er mir; hier|find ich mei- ne|Ruh,|_|hier|
 d2 =c2 B2 c2 | B4 z4 | z8 | z8 | z8 | z8 | !^!e4 d3 c | c4 B B B B | B A A e e d d c | c4 B2 z2 | %95
w: find ich mei- ne|Ruh,|||||Singt al- le|Wei- de, singt mei- ne|süs- se, mei- ne lie- be, grü- ne|Wei- de,|
 e2 A2 d3 c | B4 A2 z2 | e2 A2 d3 c | B4 A2 z2 |] %99
w: lie- be, grü- ne|Wei- de,|lie- be, grü- ne|Wei de!|
V:2
 x8 | x8 | x8 | x8 | x8 | x8 | x8 | =c3 A F2 =G2 | x8 | x8 | x8 | x8 | x8 | x8 | x8 | x8 | x8 | %17
 x8 | x8 | x8 | x8 | x8 | x8 | x8 | x8 | x8 | x8 | x8 | x8 | x8 | x8 | x8 | x8 | x8 | x8 | x8 | %36
 x8 | x8 | x8 | x8 | A3 =G F2 A2 | =c2 x6 | x8 | x8 | x8 | x8 | x8 | x8 | x8 | x8 | x8 | x8 | x8 | %53
 x8 | x8 | x8 | x8 | x8 | x8 | x8 | x8 | x8 | x8 | x8 | x8 | x8 | x8 | x8 | x8 | x8 | x8 | x8 | %72
 x8 | x8 | x8 | x8 | x8 | x8 | x8 | x8 | x8 | x8 | x8 | x8 | x8 | x8 | x8 | x8 | x8 | x8 | x8 | %91
 x8 | x8 | x8 | x8 | x8 | x8 | x8 | x8 |] %99
V:3
!mf! [A,C]4 z (.[Ac].[Ac].[Ac] | [Ac]3) [Ac] (.[Ad]3 .[Bd]) | (.[Ac]2 .[GB]2 .[EA]2) z2 | %3
 !>!A3 G F2 G2 | [A,CA]2!<(! .[A,DA]2 .[A,CA]2 .[A,B,A]2!<)! | [B,FA]2 [B,FA]2 [B,FA]2!p! (=c2 | %6
 f4 B2) z2 |!mf! z2 [B,FB]2 [B,FB]2 [B,FB]2 |!p! z2 [B,FB]2 [B,FB]2 [B,FB]2 | %9
 A4"_^\n^\n^\n^\n^\ncould remove\nminim E, like\nmeasure 77\n" [E=G-]4 | %10
!<(! ([B,EG]2 AB =c2 d2!<)! |!>(! =c4 B4-)!>)! | [D=GB]2"_cresc." (.[DGB]2 .[DGB]2 .[DGB]2) | %13
 (.[^C=G]2 .[CG]2 .[CG]2 .[CG]2) | (.[D=G]2 .[DG]2 .[DG]2 .[DG]2) | %15
 (.[^C=G]2 .[CG]2 .[CG]2 .[CG]2) |!>(! (.[=B,E]2 .[B,E]2) !>!E4!>)! | (E2 A,2 D4-) | %18
 [=G,D]2 [G,=C]2 [G,B,]2 [G,C]2 | ([F,B,]2 F2 B2) (!>!e2 | =c2 A2 F2 E2) | ^D6 (!>!=G2 | %22
 [B,E]2 [=G,=C]2[K:bass]!>(! [E,A,]2) !>![E,F,]2!>)! | %23
 [^D,F,]2 z2 z2[K:treble]!<(! (3(.^D.A.c)!<)! | (!>!!tenuto![EAc]4 [EGB]3 [EA]) | %25
 ([D-A]4 [DG])[DG][DG][DG] | ([DG]E)E[EA] [E-A][EG][E-G][EA] | ([E-A]4 [EG]2) z2 | %28
 z (EAE) z (DFD) | z (DGD) z (CEC) |!p! [A,EA][A,EA][A,EA][A,EA] [A,FA](.[A,D].[DF].[FA]) | %31
 ([DA][DA][DG][DG] [CA]2) z2 |!mf! ([Ac]E[Ac]E [Ac]E[Ac]E | [Ac]E[Ac]E [Ac]E[Ac]E) | %34
 ([Ac]E[Ac]E [Ad]D[Bd]E | [Ac]E[GB]D [CA]ECE) |!p! (A3 G F2 G2 | %37
 [A,CA]2)!<(! (.[A,DA]2 .[A,CA]2 .[A,B,A]2)!<)! | (B,FAB fB)"_espress." !>![A=c]2 | (f4 B2) z2 | %40
!f! z2 [B,FB]2 [B,FB]2 [B,FB]2 | z2 [B,FB]2 [B,FB]2 [B,FB]2 | %42
 A4"_^\n^\n^\n^\n^\ncould remove\nminim E, like\nmeasure 77\n" [E=G-]4 | %43
!<(! [B,EG]2 (AB =c2 d2!<)! |!>(! =c4 B4-!>)! | [D=GB]2) (.[DGB]2"_cresc." .[DGB]2 .[CG]2) | %46
 (.[^C=G]2 .[CG]2 .[CG]2 .[CG]2) | (.[D=G]2 .[DG]2 .[DG]2 .[DG]2) | %48
 (.[C=G]2 .[CG]2 .[CG]2 .[CG]2) |!>(! (.[=B,E]2 .[B,E]2 .[B,E]2 .[B,E]2)!>)! | %50
 (.[A,E]2 .[A,E]2 .[A,D]2 .[A,D-]2) | (.[=G,D]2 .[G,=C]2 .[G,B,]2 .[G,C]2) | %52
 ([F,B,]2 F2 B2) (!>![=GBe]2 | [=G=c]2 [EA]2 [=CF]2 [B,E]2 | ^D4 D2) (!^![D=G]2 | %55
 [B,E]2 [=G,=C]2[K:bass] [E,A,]2) !>![E,F,]2 | [^D,F,]2 z2 z2[K:treble]!<(! (3(^DA^c)!<)! | %57
 (!^![EAc]4 [EGB]3 [EA]) | ([D-A]4 [DG])(.[DG].[DG].[DG]) | ([DG]E)E[EA] [E-A][EG][E-G][EA] | %60
 ([E-A]4 [EG]2) z2 |!mf! z (EAE) z (DFD) | z (DGD) z (CEC) | %63
!p! [A,EA][A,EA][A,EA][A,EA] [A,FA](.[A,D].[DF].[FA]) | ([DA][DA][DG][DG] [CA]2) z2 | %65
!p! !tenuto![A,C]4 !tenuto![A,C]4 | !tenuto![G,C]4 !tenuto![F,B,]4 | !tenuto![E,A,C]6 z2 | %68
 [Ac]3 [Ac] ([Ad]3 [Bd] | [Ac]2 [GB]2 [EA]2) z2 | !^!A3 G F2 G2 | %71
 [A,CA]2!<(! (.[A,DA]2 .[A,CA]2 .[A,B,A]2)!<)! | %72
 (.!^![B,FA]2 .[B,FA]2 .[B,FA]2)"_espress." !^![EFA=c]2 | (f4 B2) z2 | %74
!mf! z2 [B,FB]2 [B,FB]2 [B,FB]2 | z2 [B,FB]2 [B,FB]2 [B,FB]2 | A4 =G4- | %77
!<(! [B,EG]2 (AB =c2 d2!<)! |!>(! =c4 B4-)!>)! | [D=GB]2"_cresc." (.[DGB]2 .[DGB]2 .[DGB]2) | %80
 (.[C=G]2 .[CG]2 .[CG]2 .[CG]2) | (.[D=G]2 .[DG]2 .[DG]2 .[DG]2) | (.[C=G]2 .[CG]2 .[CG]2 .[CG]2) | %83
!>(! z4"^espress." (e4!>)! | e2 A2 d4) | (.[D=Gd]2 .[=CG=c]2 .[B,GB]2 .[CGc]2) | %86
 [B,FB]2 z2 z2 (!>![Be]2 | [=G=c]2 [EA]2 [=CF]2 [B,E]2 | ^D4 D2) (!>![D=G]2 | %89
 [B,E]2 [=G,=C]2!>(! [E,A,]2)[K:bass] !>![E,F,]2!>)! |!<(! [^D,F,]2 z2!<)! z2[K:treble] (3(^DAc) | %91
!mf! !^![EAc]4 [EGB]3 [EA] | [D-A]4 [DG](.[DG].[DG].[DG]) | ([DG]E)E[EA] [E-A][EG][E-G][EA] | %94
 ([E-A]4 [EG]2) z2 |!p! z EAE z DFD | z DGD z CEC | %97
!pp! [A,EA][A,EA][A,EA][A,EA] [A,FA].[A,D].[DF].[FA] | [DA][DA][DG][DG] [CA]2 z2 |] %99
V:4
 [A,,E,]4 z (.[A,E].[A,E].[A,E] | [A,E]3) [A,E] (.[F,F]3 .[G,E]) | (.[A,E]2 .[E,D]2 .[A,C]2) z2 | %3
 [F,,C,F,]8- | [F,,C,F,]2 .[F,,D,F,]2 .[E,,E,]2 .[^D,,^D,]2 | !tenuto![^D,,^D,]6 [E,F,A,=C]2 | %6
 [^D,F,A,B,]6 z2 | [^D,^D]8 | ^D,2 z2 z4 | E,8- | E,2 z2 F,4 | =G,8- | G,2 (.=G,2 .G,2 .G,2) | %13
 (.E,2 .E,2 .E,2 .E,2) | (._B,2 .B,2 .B,2 .B,2) | (.A,2 .A,2 .A,2 .A,2) | (.=G,2 .G,2 .G,2 .G,2) | %17
 F,2 F,2 F,2 F,2 | E,2 E,2 E,2 E,2 | [^D,,^D,]6[I:staff -1] ([=GB]2 | %20
 [E=G]2 [=CE]2 [A,C]2 [=G,B,]2) |[I:staff +1] (.F,2 .F,2 .F,2) (B,2 | %22
 =G,2 E,2 =C,2) !^![=C,,A,,]2 | [B,,,F,,](!^!F,,!^!B,,!^!^D, !^!F,!^!B,) z2 | %24
 z (E,,E,)E, E,E,E,E, | z (E,,E,)E, E,E,E,E, | (E,C)CC (CB,)(B,A,) | z (E,,E,)E, E,E,E,E, | %28
 C,4 D,4 | E,4 A,,2 z2 | [C,,C,]4 [D,,D,]4 | [E,,E,]4 A,,2 z2 | A,, z (G,,2 A,,C,E,A, | %33
 C2 A,2 E,2 C,2) | [A,,E,]4 [F,,F,]2 [G,,E,]2 | [A,,E,]2 [E,,E,]2 [A,,E,]2 z2 | %36
 (F,,C,F,,C, F,,C,F,,C, | F,,C,F,,D, E,,C,^D,,B,,) | [^D,,B,,^D,]6 [E,F,A,C]2 | %39
 (^D,F,A,B, ^DB,A,F,) | [^D,,^D,]8 | ^D,2 z2 z4 | E,8- | E,4 F,4 | =G,8- | G,2 (.=G,2 .G,2 .G,2) | %46
 (.E,2 .E,2 .E,2 .E,2) | (._B,2 .B,4 .B,2) | (.A,2 .A,2 .A,2 .A,2) | (.=G,2 .G,2 .G,2 .G,2) | %50
 (.F,2 .F,2 .F,2 .F,2) | (.E,2 .E,2 .E,2 .E,2) | [^D,,^D,]4 z4 |[I:staff -1] E2 =C2 A,2 =G,2 | %54
[I:staff +1] (.F,2 .F,2 .F,2) B,2 | =G,2 E,2 =C,2 !^![=C,,A,,]2 | %56
 (!^![B,,,F,,]!^!F,,!^!B,,!^!^D, !^!F,!^!B,) z2 | z (E,,E,)E, E,E,E,E, | %58
 z (E,,E,)E, E,(.E,.E,.E,) | (E,C)CC (CB,)(B,A,) | z (E,,E,)E, E,E,E,E, | (C,4 D,4 | E,4 A,,2) z2 | %63
 [C,,C,]4 [D,,D,]4 | [E,,E,]4 A,,2 z2 | !tenuto![A,,E,]4 !tenuto![F,,F,]4 | %66
 !tenuto![E,,E,]4 !tenuto![D,,D,]4 | (A,,,2 E,,2 A,,2 E,2) | [A,E]3 [A,E] ([F,F]3 [G,E] | %69
 [A,E]2 [E,D]2 [A,C]2) z2 | !>![F,,C,]8- | [F,,C,]2 (.[F,,F,]2 .[E,,E,]2 .[^D,,^D,]2) | %72
 !^![^D,,^D,]6 !^![E,F,A,=C]2 | [^D,F,A,B,]6 z2 | [^D,,^D,]8 | ^D,2 z2 z4 | E,8- | E,2 z2 F,4 | %78
 =G,8- | G,2 (.=G,2 .G,2 .G,2) | (.E,2 .E,2 .E,2 .E,2) | (._B,2 .B,4 .B,2) | %82
 (.A,2 .A,2 .A,2 .A,2) | (.=G,2 .G,2 .[G,B,]2 .[G,B,]2) | (.[F,A,]2 .[F,A,]2 .[F,A,]2 .[F,A,]2) | %85
 (.[E,=G,]2 .[E,G,]2 .[E,G,]2 .[E,G,]2) | ([^D,F,]2 F,2 B,2)[I:staff -1] (!^!=G2 | %87
 E2 =C2 A,2 =G,2 |[I:staff +1] F,2) F,2 F,2 (!>!B,2 | =G,2 E,2 =C,2) !>![=C,,A,,]2 | %90
 [B,,,F,,]!^!F,,!^!B,,!^!^D, !^!F,!^!B, z2 | z (E,,E,)E, E,E,E,E, | z (E,,E,)E, E,(.E,.E,.E,) | %93
 (E,C)CC (CB,)(B,A,) | z (E,,E,)E, E,E,E,E, | C,4 D,4 | E,4 A,,2 z2 | ([C,,C,]4 [D,,D,]4 | %98
 [E,,E,]4 A,,2) z2 |] %99
V:5
 x8 | x8 | x8 | [A,C]8- | x8 | x8 | [FA]2 [FA]2 [FA]2 [FA]2 | x8 | x8 | F2 B,2 E2- B,2- | %10
 x4 [DA]4 | A2 D2 =G2 D2- | x8 | x8 | x8 | x8 | x4 B,2 B,2 | A,2 A,2 A,2 A,2 | x8 | x8 | x8 | %21
 (.A,2 .A,2 .A,2) ^D2 | x4[K:bass] x4 | x6[K:treble] x2 | x8 | x8 | x8 | x8 | x8 | x8 | x8 | x8 | %32
 x8 | x8 | x8 | x8 | [A,C]8- | x8 | x6 FE | [FA]2 [FA]2 [FA]2 [FA]2 | x8 | x8 | F2 B,2 E2- B,2- | %43
 x4 [DA]4 | A2 D2 =G2 D2 | x8 | x8 | x8 | x8 | x8 | x8 | x8 | x8 | x8 | (.A,2 .A,2 .A,2) x2 | %55
 x4[K:bass] x4 | x6[K:treble] x2 | x8 | x8 | x8 | x8 | x8 | x8 | x8 | x8 | x8 | x8 | x8 | x8 | x8 | %70
 [A,C]8- | x8 | x8 | [FA]2 [FA]2 [FA]2 [FA]2 | x8 | x8 | F2 B,2 E2- B,2- | x4 [DA]4 | %78
 A2 D2 =G2 D2- | x8 | x8 | x8 | x8 | (.[=B,E]2 .[B,E]2 .B,2 .B,2) | A,2 A,2 A,2 A,2 | x8 | x8 | %87
 x8 | A,2 A,2 A,2 x2 | x6[K:bass] x2 | x6[K:treble] x2 | x8 | x8 | x8 | x8 | x8 | x8 | x8 | x8 |] %99
V:6
 x8 | x8 | x8 | x8 | x8 | x8 | x8 | x8 | x8 | x8 | x8 | x8 | x8 | x8 | x8 | x8 | x8 | F,,8 | E,,8 | %19
 x6 z2 | x8 | F,,6 z2 | x8 | x8 | x8 | x8 | x8 | x8 | x8 | x8 | x8 | x8 | x8 | x8 | x8 | x8 | x8 | %37
 x8 | x8 | x8 | x8 | x8 | x8 | x8 | x8 | x8 | x8 | x8 | x8 | x8 | F,,8 | E,,8 | x8 | x8 | F,,6 z2 | %55
 x8 | x8 | x8 | x8 | x8 | x8 | x8 | x8 | x8 | x8 | x8 | x8 | x8 | x8 | x8 | x8 | x8 | x8 | x8 | %74
 x8 | x8 | x8 | x8 | x8 | x8 | x8 | x8 | x8 | x8 | x8 | x8 | x8 | x8 | x8 | x8 | x8 | x8 | x8 | %93
 x8 | x8 | x8 | x8 | x8 | x8 |] %99

